icons-dark/mimetypes/16/application-vnd.oasis.opendocument.spreadsheet-template.svg

<svg width="16" xmlns="http://www.w3.org/2000/svg" height="16" viewBox="0 0 16 16">
 <path fill="#124c12" d="m2 2v12h12v-12h-11zm1 1h10v2h-10zm0 3h2v3h-2zm3 0h4v3h-4zm5 0h2v3h-2zm-8 4h2v3h-2zm3 0h4v3h-4zm5 0h2v3h-2z"/>
</svg>

<?xml version="1.0" encoding="UTF-8" standalone="no"?>

<!-- Created with Inkscape (http://www.inkscape.org/) -->
<svg width="16" version="1.1" xmlns="http://www.w3.org/2000/svg" height="16" viewBox="0 0 16 16" xmlns:inkscape="http://www.inkscape.org/namespaces/inkscape">
 <defs id="defs4"/>
 <metadata id="metadata7"/>
 <g inkscape:label="Capa 1" inkscape:groupmode="layer" id="layer1" transform="matrix(1 0 0 1 0 -1036.3622)">
  <path style="fill:#6c7a89" id="rect4031" d="M 2 2 L 2 3 L 2 13 L 2 14 L 3 14 L 14 14 L 14 13 L 14 2 L 3 2 L 2 2 z M 3 3 L 13 3 L 13 5 L 3 5 L 3 3 z M 3 6 L 5 6 L 5 9 L 3 9 L 3 6 z M 6 6 L 10 6 L 10 9 L 6 9 L 6 6 z M 11 6 L 13 6 L 13 9 L 11 9 L 11 6 z M 3 10 L 5 10 L 5 13 L 3 13 L 3 10 z M 6 10 L 10 10 L 10 13 L 6 13 L 6 10 z M 11 10 L 13 10 L 13 13 L 11 13 L 11 10 z " transform="matrix(1 0 0 1 0 1036.3622)"/>
  <rect width="0" x="3" y="3" height="10.999983" style="fill:#6c7a89" id="rect4035" transform="matrix(1 0 0 1 0 1036.3622)"/>
 </g>
</svg>
